openmetadata-ui/src/main/resources/ui/src/assets/svg/hide-password.svg

<svg width="24" height="18" viewBox="0 0 24 18" fill="none" xmlns="http://www.w3.org/2000/svg">
<path d="M14.9796 9.20217L16.3427 7.83905C16.4419 8.21011 16.5 8.59805 16.5 9.00005C16.5 11.4814 14.4814 13.5 12 13.5C11.598 13.5 11.2101 13.4419 10.839 13.3427L12.2021 11.9796C13.6926 11.878 14.8779 10.6926 14.9796 9.20217ZM23.9055 8.63573C23.8132 8.4698 22.5049 6.17723 19.9474 4.23436L18.8559 5.3258C20.7208 6.69698 21.9024 8.29617 22.3676 9.00117C21.4787 10.3547 17.9916 15 12 15C11.1015 15 10.266 14.8851 9.47981 14.7017L8.24738 15.9342C9.38044 16.2816 10.6258 16.5 12 16.5C19.8512 16.5 23.7437 9.65555 23.9055 9.36436C24.0315 9.13767 24.0315 8.86242 23.9055 8.63573ZM20.7803 1.2803L4.28025 17.7803C4.13381 17.9267 3.94181 18 3.75 18C3.55819 18 3.36619 17.9267 3.21975 17.7803C2.92669 17.4872 2.92669 17.0127 3.21975 16.7198L5.319 14.6205C1.92525 12.5717 0.200812 9.5558 0.0945 9.36436C-0.0315 9.13767 -0.0315 8.86223 0.0945 8.63555C0.256312 8.34455 4.14881 1.50005 12 1.50005C14.0301 1.50005 15.7884 1.96317 17.2916 2.64792L19.7197 0.219797C20.0128 -0.0732656 20.4874 -0.0732656 20.7803 0.219797C21.0731 0.512859 21.0733 0.987422 20.7803 1.2803ZM6.43744 13.5021L8.33625 11.6033C7.81181 10.8675 7.5 9.97036 7.5 9.00005C7.5 6.51867 9.51863 4.50005 12 4.50005C12.9703 4.50005 13.8675 4.81186 14.6033 5.33611L16.1387 3.80067C14.9256 3.31486 13.5471 3.00005 12 3.00005C6.00844 3.00005 2.52131 7.64536 1.63256 8.99892C2.19694 9.8543 3.81919 12.0195 6.43744 13.5021ZM9.42506 10.5143L13.5142 6.42511C13.0682 6.16167 12.5546 6.00005 12 6.00005C10.3459 6.00005 9 7.34592 9 9.00005C9 9.55467 9.16162 10.0682 9.42506 10.5143Z" fill="#37352F"/>
</svg>

<svg xmlns="http://www.w3.org/2000/svg" width="24" height="18" fill="none"><path fill="#37352F" d="m14.98 9.202 1.363-1.363c.099.371.157.76.157 1.161 0 2.481-2.019 4.5-4.5 4.5-.402 0-.79-.058-1.161-.157l1.363-1.363a2.987 2.987 0 0 0 2.778-2.778Zm8.925-.566c-.092-.166-1.4-2.459-3.958-4.402l-1.091 1.092A15.01 15.01 0 0 1 22.368 9C21.478 10.355 17.992 15 12 15a11.02 11.02 0 0 1-2.52-.298l-1.233 1.232c1.133.348 2.379.566 3.753.566 7.851 0 11.744-6.844 11.905-7.136a.75.75 0 0 0 0-.728ZM20.78 1.28l-16.5 16.5a.748.748 0 0 1-1.06 0 .75.75 0 0 1 0-1.06l2.099-2.1C1.925 12.572.201 9.556.095 9.364a.75.75 0 0 1 0-.728C.256 8.345 4.149 1.5 12 1.5c2.03 0 3.788.463 5.292 1.148L19.72.22a.75.75 0 1 1 1.06 1.06ZM6.437 13.502l1.9-1.899A4.47 4.47 0 0 1 7.5 9c0-2.481 2.019-4.5 4.5-4.5.97 0 1.867.312 2.603.836l1.536-1.535A11.043 11.043 0 0 0 12 3C6.008 3 2.521 7.645 1.633 9c.564.855 2.186 3.02 4.804 4.503Zm2.988-2.988 4.09-4.089A2.966 2.966 0 0 0 12 6c-1.654 0-3 1.346-3 3 0 .555.162 1.068.425 1.514Z"/></svg>
